svg/fluentui-system-icons/ic_fluent_backpack_16_filled.svg

<svg width="16" height="16" viewBox="0 0 16 16" fill="none" xmlns="http://www.w3.org/2000/svg">
<path d="M6 8C6 7.44772 6.44772 7 7 7H9C9.55228 7 10 7.44772 10 8H6ZM8 1C6.89543 1 6 1.89543 6 3V3.41604C4.2341 4.1876 3 5.94968 3 8V10H13V8C13 5.94968 11.7659 4.1876 10 3.41604V3C10 1.89543 9.10457 1 8 1ZM8 3C7.65753 3 7.32311 3.03443 7 3.10002V3C7 2.44772 7.44772 2 8 2C8.55228 2 9 2.44772 9 3V3.10002C8.67689 3.03443 8.34247 3 8 3ZM7 6H9C10.1046 6 11 6.89543 11 8C11 8.55228 10.5523 9 10 9H6C5.44772 9 5 8.55229 5 8C5 6.89543 5.89543 6 7 6ZM6 12.5V11H3V12.5C3 13.8807 4.11929 15 5.5 15H10.5C11.8807 15 13 13.8807 13 12.5V11H7V12.5C7 12.7761 6.77614 13 6.5 13C6.22386 13 6 12.7761 6 12.5Z" fill="#212121"/>
</svg>

<svg xmlns="http://www.w3.org/2000/svg" width="16" height="16"><path d="M6 8a1 1 0 0 1 1-1h2a1 1 0 0 1 1 1H6Zm2-7a2 2 0 0 0-2 2v.416A5.001 5.001 0 0 0 3 8v2h10V8a5.001 5.001 0 0 0-3-4.584V3a2 2 0 0 0-2-2Zm0 2c-.342 0-.677.034-1 .1V3a1 1 0 0 1 2 0v.1A5.023 5.023 0 0 0 8 3ZM7 6h2a2 2 0 0 1 2 2 1 1 0 0 1-1 1H6a1 1 0 0 1-1-1 2 2 0 0 1 2-2Zm-1 6.5V11H3v1.5A2.5 2.5 0 0 0 5.5 15h5a2.5 2.5 0 0 0 2.5-2.5V11H7v1.5a.5.5 0 0 1-1 0Z"/></svg>
